X:525
T:You Need Not Fear
M:C
L:1/8
B:O'Neill's 525
N:"Animated" "collected by J. O'Neill"
Z:Transcribed by Dave Wooldridge
K:G
G \
|G3 A cBAG|A3 B dcBA|G2 Bd edcB|B4 A2 z G|
G3 F E2 D2|E2 GA B3 e|d3 e B2 A/2G/2B/2A/2|G6 z||
d \
|d2 ef g3 f/2e/2|d3e B2 z e|d3 e dBAG|B3 c/2B/2 A2 zG|
G2 Bd e3 d|g3 a aHg2 fe|dBge dBAB|G6 z||
